X: 7118
T: Christmas In America
R: reel
M: 4/4
K: Gmajor
|:(3DEF|G2 BG EDB,E|DEGB AE E2|D2 B,D GABd|g2 fg edBA|
GABG EDB,E|DEGB AGEE|DEGA Bdeg|dBcA G2:|
|:Bd|(3gbg fg edBd|gfga bgab|gbag edge|d3B AGEG|
g2 fg edBd|g3a bgab|gbag edge|dBcA G2:|

